X:1
T:Title
%%score { 1 | ( 2 3 ) }
L:1/8
M:6/8
K:D
V:1 treble nm="Grand Piano"
V:2 bass 
V:3 bass 
V:1
 z3 z2[Q:1/4=84] F | F[EG][FA] [GB][FA][DF] | [CE][DF][EG] [DF]2 [DA] | %3
 [CA][CE][DF] [EG][Ec].[B,GB] |[M:5/8] [DFA]- [DFA]3 z |[M:1/8] [A,DF] | %6
[M:3/4] [A,DF][A,EG] [FA][GB] [FA][Fd] | dB B B2 B | BA AA Bc |[M:5/8] [Fd]- [Fd]3 z |[M:1/8] d | %11
[M:3/4] dc B G2 B | [GB][FA] [DF] [FA]2 F | EE EE ^GB |[M:5/8] [CA]- [CA]3 z |[M:1/8] [CA] | %16
[M:3/4] [CA][DB] [Ec] [Fd]2 F |[M:7/8] FGA B3 B |[M:3/4] BA F[CA] [CG][CE] | %19
[M:5/8] [A,D]- [A,D]3 z |] %20
V:2
 z3 z2 [D,A,D] | [D,A,D][D,A,][D,D] [D,D][D,D][D,A,] | [A,,A,][A,,A,][A,,A,] [D,A,]2 [D,F,] | %3
 [A,,A,][A,,A,][A,,A,] [A,,A,].[A,,A,]>C |[M:5/8] D,- D,3 z |[M:1/8] D, | %6
[M:3/4] D,D, [D,D][D,D] [D,D][D,A,] | [G,B,G][G,DG] [G,DG] [G,DG]2 [G,DG] | %8
 [A,DF][A,DF] [A,DF][A,CG] [A,DG][A,EG] |[M:5/8][K:bass] [D,D]- [D,D]3 z | %10
[M:1/8][K:treble] [G,B,G] |[M:3/4] [G,B,G][G,CG] [G,DG] [G,B,D]2 [G,DG] | %12
 [D,D][D,D] [D,A,] [D,D]2 [D,A,D] | [E,^G,D][E,G,D] [E,G,D][E,G,D] [E,B,D][E,G,D] | %14
[M:5/8] [A,,A,]- [A,,A,]3 z |[M:1/8] [A,,A,] |[M:3/4] [A,,A,][A,,A,] [A,,A,] [D,A,]2 [D,A,D] | %17
[M:7/8] [D,A,D][E,A,C][F,A,D][K:treble] [G,D]3 [G,DG] | %18
[M:3/4] [A,DF][A,DF] [A,D][K:bass][A,,E,] [A,,E,][A,,G,] |[M:5/8] [D,F,]- [D,F,]3 z |] %20
V:3
 x6 | x6 | x6 | z3 z2 A,, |[M:5/8] x5 |[M:1/8] x |[M:3/4] x6 | x6 | x6 |[M:5/8][K:bass] x5 | %10
[M:1/8][K:treble] x |[M:3/4] x6 | x6 | x6 |[M:5/8] x5 |[M:1/8] x |[M:3/4] x6 | %17
[M:7/8] x3[K:treble] x4 |[M:3/4] x3[K:bass] x3 |[M:5/8] x5 |] %20

